X:1
T:The Angels Have Charge over Thee
T:Henry Lake Gilmour
T:The Angels Have Charge over Thee
T:Public Domain
T:Public Domain
C:Henry Lake Gilmour
Z:Public Domain
%%score ( 1 2 ) ( 3 4 )
L:1/8
M:6/4
K:Db
V:1 treble 
V:2 treble 
V:3 bass 
V:4 bass 
V:1
 [FA]2 | [FA]3 [=E=G] [FA]2 [_GB]3 [FA] [FA]2 | [EA]3 [CE] [DF]2 [EG]4 [FA]2 | %3
w: 1.~In|time of tempt- a- tion, I|hear a sweet voice, So|
w: 2.~When|tri- als a- rise, and when|dan- ger is near, A|
w: 3.~Then|rest, sweet- ly rest, on the|prom- ise of God, From|
 [Ac]3 [GB] [FA]2 [FA]3 [=E=G] [_E_G]2 | [DF]6- [DF]4 [FA]2 | [FA]3 [=E=G] [FA]2 [Fd]4 [Fd][Ac] | %6
w: ten- der- ly whis- per to|me, * “Be|strong in the Lord, sweet- ly|
w: light in the dark- ness I|see; * This|prom- ise so blest bring- eth|
w: sin and its pow- er be|free; * O|be of good cheer, there is|
 [GB]3 [FA] [DF]2 [DG]4 [GB]2 | [FA]3 [Fd] [DF]2 [CA]3 [CG] [CE]2 | D6- D4 ||"^Refrain" [Fd]2 | %10
w: rest on His Word, The|an- gels have charge o- ver|thee.” *||
w: comf- ort and rest, “The|an- gels have charge o- ver|thee.” *|an-|
w: no- thing to fear, “The|an- gels have charge o- ver|thee.” *||
 [Gc]3 [Gc] [Gc]2 [Gc]3 [GB] [GA]2 | (A4 d2 [FA]4) [FA]2 | [Ac]3 [GB] [FA]2 [EG]4 [CA]2 | %13
w: |||
w: gels have charge o- ver thee,|To * * keep|in all * thy ways”;|
w: |||
 [DF]6- [DF]4 [FA]2 | [Fd]3 [Gc] [Ad]2 [Ge]3 [Gd] [GB]2 | [FA]3 [DF] [GB]2 [FA]4 [FA]2 | %16
w: |||
w: This * bless-|èd as- sur- ance brings peace|to my soul, My heart|
w: |||
 [GB]3 [Gc] [Gd]2 [=Ge]3 [GB] [_Gc]2 | [Fd]6- [Fd]4 |] %18
w: ||
w: is o’er- flow- ing with praise.||
w: ||
V:2
 x2 | x12 | x12 | x12 | x12 | x12 | x12 | x12 | D6- D4 || x2 | x12 | F6- x6 | x12 | x12 | x12 | %15
w: |||||||||||||||
w: ||||||||“The *|||thee||||
 x12 | x12 | x10 |] %18
w: |||
w: |||
V:3
 [D,D]2 | [D,D]3 [D,D] [D,D]2 [D,D]3 [D,D] [D,D]2 | [A,,C]3 [A,,A,] [A,,A,]2 [A,,A,]4 [A,,A,]2 | %3
 [A,,A,]3 [A,,A,] [A,,A,]2 [A,,A,]3 [B,,A,] [C,A,]2 | [D,A,]6- [D,A,]4 [D,D]2 | %5
 [D,D]3 [D,D] [D,D]2 [D,A,]4 [D,A,][D,D] | [D,D]3 [D,D] [D,A,]2 [G,B,]4 [G,D]2 | %7
 [A,D]3 A, A,2 [A,,E,]3 [A,,E,] [A,,G,]2 | [D,F,]6- [D,F,]4 || [D,A,]2 | %10
 A,3 [A,E] [A,E]2 [A,E]3 [A,D] [A,C]2 | ([D,D]4 [D,A,][D,A,] [D,D]4) [D,A,]2 | %12
 [A,,A,]3 [A,,A,] [A,,A,]2 [A,,A,]4 [A,,A,]2 | [D,A,]6- [D,A,]4 [D,D]2 | %14
 [D,A,]3 [E,A,] [F,A,]2 [G,B,]3 [G,B,] [G,D]2 | [D,D]3 [D,A,] [D,D]2 [D,D]4 [D,D]2 | %16
 [G,D]3 [G,C] [G,B,]2 [E,B,]3 [E,B,] A,2 | [D,A,]6- [D,A,]4 |] %18
V:4
 x2 | x12 | x12 | x12 | x12 | x12 | x12 | x3 A, A,2 x6 | x10 || x2 | A,3 x9 | x12 | x12 | x12 | %14
 x12 | x12 | x10 A,2 | x10 |] %18

